X:356
T:Tommy Coen's
Z: id:dc-reel-362
M:C
L:1/8
K:E Dorian
D|B,EE2 EFGA|B2eB dBAF|D3F E2DB,|A,DFD EDB,A,|!
B,EE2 EFGA|B2eB dBAF|DEFA dBAF|DEFD E3:|!
A|Bee2 fedB|e3f dBAF|A3B d2fd|edef d2BA|!
Bee2 fedB|egfe dBAF|DEFA dBAF|DEFD E3:|!

